icon-themes/breeze_svg/cmd/lc_insertobjectdialog.svg

<svg viewBox="0 0 24 24" xmlns="http://www.w3.org/2000/svg"><path d="m11 20c-.552285 0-1 .4477-1 1s.447715 1 1 1 1-.4477 1-1-.447715-1-1-1zm4 0c-.552285 0-1 .4477-1 1s.447715 1 1 1 1-.4477 1-1-.447715-1-1-1zm4 0c-.552285 0-1 .4477-1 1s.447715 1 1 1 1-.4477 1-1-.447715-1-1-1z" fill="#f47750"/><path d="m5 3.9980469v6 1.0000001 5 1 1h-1v1h1v1h1v-1h14v-1h-2v-8.998047h-4v8.998047h-1-1v-13.998047h-4v13.998047h-1-1v-1-1-3-1-1-1.0000001-3-.0097657-.9921874-1.9980469z" fill="#4d4d4d"/></svg>

<svg xmlns="http://www.w3.org/2000/svg" viewBox="0 0 24 24">
 <path 
     style="fill:#f47750" 
     d="M 11 20 C 10.447715 20 10 20.4477 10 21 C 10 21.5523 10.447715 22 11 22 C 11.552285 22 12 21.5523 12 21 C 12 20.4477 11.552285 20 11 20 z M 15 20 C 14.447715 20 14 20.4477 14 21 C 14 21.5523 14.447715 22 15 22 C 15.552285 22 16 21.5523 16 21 C 16 20.4477 15.552285 20 15 20 z M 19 20 C 18.447715 20 18 20.4477 18 21 C 18 21.5523 18.447715 22 19 22 C 19.552285 22 20 21.5523 20 21 C 20 20.4477 19.552285 20 19 20 z "
     />
 <path 
     style="fill:#4d4d4d" 
     d="M 5 3.9980469 L 5 9.9980469 L 5 10.998047 L 5 15.998047 L 5 16.998047 L 5 17.998047 L 4 17.998047 L 4 18.998047 L 5 18.998047 L 5 19.998047 L 6 19.998047 L 6 18.998047 L 20 18.998047 L 20 17.998047 L 18 17.998047 L 18 9 L 14 9 L 14 17.998047 L 13 17.998047 L 12 17.998047 L 12 4 L 8 4 L 8 17.998047 L 7 17.998047 L 6 17.998047 L 6 16.998047 L 6 15.998047 L 6 12.998047 L 6 11.998047 L 6 10.998047 L 6 9.9980469 L 6 6.9980469 L 6 6.9882812 L 6 5.9960938 L 6 3.9980469 L 5 3.9980469 z "
     />
 </svg>
